X: 1
T: Multnomah March
C: Bob McQuillen 8 Apr 89
B: Bob's Note Book 9 p. 82
B: Portland Collection v.2 p.141
N: "What a wonderful weekend we all had at Jim Howe's very first
N: Spring Festival, held at the Multnomah Art Center in Portland,
N: OR. It was a great success, Jim - Contratulations!"
R: march
Z: 2016 John Chambers <jc:trillian.mit.edu>
M: 2/4
L: 1/8
K: A
"E7"AB |:\
"A"c>B AE | "D"F A2 B | "A"c>B AB | "C#m"c e2 c/e/ |\
"D"f>efa |[1 "A"f<e c>B | "F#m"A>c BA | "E7"F<E A>B :|
         |[2 "A"f<e c>A | "E7"B<A A>A | "A"A2 \
|: "E7"cd |\
"A"e>f ec | e a2 f | e>c AB | "F#m"c f2 c/B/ |
"D"AF F>E |[1 "D"FA  A>F | "A"E>F Ac | "E7"cB :|\
          |[2 "D"FA A>f | "E7"e<c B>A | "A"A2 |]
